img/filter.svg

<svg id="filter_btn_svg" viewBox="0 0 15 16" fill="none" xmlns="http://www.w3.org/2000/svg">
    <path d="M12.49 4.38699C12.2985 3.71786 11.6818 3.22656 10.952 3.22656C10.2222 3.22656 9.60548 3.71786 9.41391 4.38699H0V5.2659H9.41402C9.60548 5.93492 10.2222 6.42633 10.952 6.42633C11.6818 6.42633 12.2985 5.93492 12.4901 5.2659H15V4.38699H12.49ZM10.952 5.54742C10.5544 5.54742 10.231 5.22401 10.231 4.82645C10.231 4.42888 10.5545 4.10547 10.952 4.10547C11.3496 4.10547 11.673 4.42888 11.673 4.82645C11.673 5.22401 11.3496 5.54742 10.952 5.54742Z"
          fill="black"/>
    <path d="M2.81696 6.90283C2.08717 6.90283 1.47045 7.39424 1.27899 8.06326H0V8.94217H1.27899C1.47045 9.61131 2.08729 10.1026 2.81708 10.1026C3.54687 10.1026 4.16359 9.61131 4.35505 8.94217H15V8.06326H4.35505C4.16359 7.39424 3.54675 6.90283 2.81696 6.90283ZM2.81696 9.22369C2.41951 9.22369 2.0961 8.90028 2.0961 8.50272C2.0961 8.10526 2.41951 7.78174 2.81696 7.78174C3.21453 7.78174 3.53794 8.10526 3.53794 8.50272C3.53794 8.90028 3.21453 9.22369 2.81696 9.22369Z"
          fill="black"/>
    <path d="M7.74639 10.5791C7.0166 10.5791 6.39977 11.0704 6.20831 11.7395H0V12.6184H6.20831C6.39977 13.2875 7.0166 13.7789 7.74639 13.7789C8.47607 13.7789 9.0929 13.2875 9.28436 12.6184H15V11.7395H9.28436C9.0929 11.0704 8.47607 10.5791 7.74639 10.5791ZM7.74639 12.9C7.34882 12.9 7.02541 12.5766 7.02541 12.179C7.02541 11.7814 7.34882 11.458 7.74639 11.458C8.14384 11.458 8.46737 11.7814 8.46737 12.179C8.46737 12.5766 8.14396 12.9 7.74639 12.9Z"
          fill="black"/>
</svg>

<svg viewBox="0 0 15 16" fill="none" xmlns="http://www.w3.org/2000/svg"><path d="M12.49 4.387a1.602 1.602 0 0 0-1.538-1.16 1.6 1.6 0 0 0-1.538 1.16H0v.879h9.414c.191.669.808 1.16 1.538 1.16s1.347-.491 1.538-1.16H15v-.879h-2.51zm-1.538 1.16a.722.722 0 1 1 .002-1.443.722.722 0 0 1-.002 1.443zM2.817 6.903c-.73 0-1.347.491-1.538 1.16H0v.88h1.279c.191.668.808 1.16 1.538 1.16s1.347-.492 1.538-1.16H15v-.88H4.355a1.603 1.603 0 0 0-1.538-1.16zm0 2.32a.722.722 0 1 1 .002-1.443.722.722 0 0 1-.002 1.444zm4.929 1.357c-.73 0-1.346.49-1.538 1.16H0v.878h6.208a1.6 1.6 0 0 0 3.076 0H15v-.879H9.284a1.602 1.602 0 0 0-1.538-1.16zm0 2.32a.722.722 0 1 1 .002-1.444.722.722 0 0 1-.002 1.444z" fill="#000"/></svg>
